public/img/attention-detail.svg

<svg width="40" height="36" viewBox="0 0 40 36" fill="none" xmlns="http://www.w3.org/2000/svg">
<path d="M1.25 1.125V29.875C1.25 32.2969 3.20312 34.25 5.625 34.25H39.375C39.6875 34.25 40 34.5625 40 34.875C40 35.2656 39.6875 35.5 39.375 35.5H5.625C2.5 35.5 0 33 0 29.875V1.125C0 0.8125 0.234375 0.5 0.625 0.5C0.9375 0.5 1.25 0.8125 1.25 1.125ZM16.875 10.5C16.875 9.48438 16.0156 8.625 15 8.625C13.9062 8.625 13.125 9.48438 13.125 10.5C13.125 11.5938 13.9062 12.375 15 12.375C16.0156 12.375 16.875 11.5938 16.875 10.5ZM15 7.375C16.0938 7.375 17.1094 8 17.6562 8.9375C18.2031 9.95312 18.2031 11.125 17.6562 12.0625C17.1094 13.0781 16.0938 13.625 15 13.625C13.8281 13.625 12.8125 13.0781 12.2656 12.0625C11.7188 11.125 11.7188 9.95312 12.2656 8.9375C12.8125 8 13.8281 7.375 15 7.375ZM22.5 19.875C23.5156 19.875 24.375 19.0938 24.375 18C24.375 16.9844 23.5156 16.125 22.5 16.125C21.4062 16.125 20.625 16.9844 20.625 18C20.625 19.0938 21.4062 19.875 22.5 19.875ZM19.375 18C19.375 16.9062 19.9219 15.8906 20.9375 15.3438C21.875 14.7969 23.0469 14.7969 24.0625 15.3438C25 15.8906 25.625 16.9062 25.625 18C25.625 19.1719 25 20.1875 24.0625 20.7344C23.0469 21.2812 21.875 21.2812 20.9375 20.7344C19.9219 20.1875 19.375 19.1719 19.375 18ZM31.875 23C31.875 21.9844 31.0156 21.125 30 21.125C28.9062 21.125 28.125 21.9844 28.125 23C28.125 24.0938 28.9062 24.875 30 24.875C31.0156 24.875 31.875 24.0938 31.875 23ZM30 19.875C31.0938 19.875 32.1094 20.5 32.6562 21.4375C33.2031 22.4531 33.2031 23.625 32.6562 24.5625C32.1094 25.5781 31.0938 26.125 30 26.125C28.8281 26.125 27.8125 25.5781 27.2656 24.5625C26.7188 23.625 26.7188 22.4531 27.2656 21.4375C27.8125 20.5 28.8281 19.875 30 19.875ZM32.5 9.875C33.5156 9.875 34.375 9.09375 34.375 8C34.375 6.98438 33.5156 6.125 32.5 6.125C31.4062 6.125 30.625 6.98438 30.625 8C30.625 9.09375 31.4062 9.875 32.5 9.875ZM29.375 8C29.375 6.90625 29.9219 5.89062 30.9375 5.34375C31.875 4.79688 33.0469 4.79688 34.0625 5.34375C35 5.89062 35.625 6.90625 35.625 8C35.625 9.17188 35 10.1875 34.0625 10.7344C33.0469 11.2812 31.875 11.2812 30.9375 10.7344C29.9219 10.1875 29.375 9.17188 29.375 8ZM14.375 23C14.375 21.9844 13.5156 21.125 12.5 21.125C11.4062 21.125 10.625 21.9844 10.625 23C10.625 24.0938 11.4062 24.875 12.5 24.875C13.5156 24.875 14.375 24.0938 14.375 23ZM12.5 19.875C13.5938 19.875 14.6094 20.5 15.1562 21.4375C15.7031 22.4531 15.7031 23.625 15.1562 24.5625C14.6094 25.5781 13.5938 26.125 12.5 26.125C11.3281 26.125 10.3125 25.5781 9.76562 24.5625C9.21875 23.625 9.21875 22.4531 9.76562 21.4375C10.3125 20.5 11.3281 19.875 12.5 19.875Z" fill="#1A75BB"/>
</svg>

<svg xmlns="http://www.w3.org/2000/svg" width="40" height="36" fill="none"><path fill="#1A75BB" d="M1.25 1.125v28.75a4.37 4.37 0 0 0 4.375 4.375h33.75c.313 0 .625.313.625.625 0 .39-.312.625-.625.625H5.625A5.6 5.6 0 0 1 0 29.875V1.125C0 .813.234.5.625.5c.313 0 .625.313.625.625M16.875 10.5c0-1.016-.86-1.875-1.875-1.875-1.094 0-1.875.86-1.875 1.875 0 1.094.781 1.875 1.875 1.875 1.016 0 1.875-.781 1.875-1.875M15 7.375c1.094 0 2.11.625 2.656 1.563.547 1.015.547 2.187 0 3.124-.547 1.016-1.562 1.563-2.656 1.563-1.172 0-2.187-.547-2.734-1.562-.547-.938-.547-2.11 0-3.126A3.15 3.15 0 0 1 15 7.376m7.5 12.5c1.016 0 1.875-.781 1.875-1.875 0-1.016-.86-1.875-1.875-1.875-1.094 0-1.875.86-1.875 1.875 0 1.094.781 1.875 1.875 1.875M19.375 18c0-1.094.547-2.11 1.563-2.656.937-.547 2.109-.547 3.125 0 .937.547 1.562 1.562 1.562 2.656a3.15 3.15 0 0 1-1.562 2.734c-1.016.547-2.188.547-3.125 0-1.016-.547-1.563-1.562-1.563-2.734m12.5 5c0-1.016-.86-1.875-1.875-1.875-1.094 0-1.875.86-1.875 1.875 0 1.094.781 1.875 1.875 1.875 1.016 0 1.875-.781 1.875-1.875M30 19.875c1.094 0 2.11.625 2.656 1.563.547 1.015.547 2.187 0 3.125-.547 1.015-1.562 1.562-2.656 1.562-1.172 0-2.187-.547-2.734-1.562-.547-.938-.547-2.11 0-3.125A3.15 3.15 0 0 1 30 19.875m2.5-10c1.016 0 1.875-.781 1.875-1.875 0-1.016-.86-1.875-1.875-1.875-1.094 0-1.875.86-1.875 1.875 0 1.094.781 1.875 1.875 1.875M29.375 8c0-1.094.547-2.11 1.563-2.656.937-.547 2.109-.547 3.125 0C35 5.89 35.625 6.906 35.625 8a3.15 3.15 0 0 1-1.562 2.734c-1.016.547-2.188.547-3.126 0-1.015-.546-1.562-1.562-1.562-2.734m-15 15c0-1.016-.86-1.875-1.875-1.875-1.094 0-1.875.86-1.875 1.875 0 1.094.781 1.875 1.875 1.875 1.016 0 1.875-.781 1.875-1.875M12.5 19.875c1.094 0 2.11.625 2.656 1.563.547 1.015.547 2.187 0 3.125-.547 1.015-1.562 1.562-2.656 1.562-1.172 0-2.187-.547-2.734-1.562-.547-.938-.547-2.11 0-3.125a3.15 3.15 0 0 1 2.734-1.563"/></svg>
